X: 10955
T: Drummond Lasses, The
R: reel
M: 4/4
K: Gmajor
f|:gfed Bddf|gfed eaa2|gfed BddB|1 cBAG DGG2:|2 cBAG EGFA||
|:G2BG dGBA|GABG EAAF|G2BG dGBG|1 cBAF DGGF:|2 cBAF DGG2||

